X:1
T:Boarisch
R:Schottisch
A:Muehlviertel, Oberoesterreich
%%textfont Helvetica-Narrow 10pt
%%begintext align
B:nach: "Tanzheft fuer Pfeifer", V.Derschmidt, Herausgegeben von A.Ruttner, Verlag Friedhuber, Wels 1970
N:dort Nr.8/2 in G (1.Teil), D (2.Teil)
%%endtext 
F:http://simonwascher.info
Z:abc transcription Simon Wascher
M:2/4
L:1/16
K:G
(D2 |\
.B2)AG FAGE | (ED)GB .e2.d2 | (cD)FA .e2d2 | (BD)GB e2(d2 |
.B2)AG FAGE | (ED)GB .e2.d2 | (cD)FA .e2d2 | g2g2g2 :|
z2 |\
(BF)GE D4 | (BF)GE D4 | (BF)G2 (FA)e2 | (d2^c2) =c4 |
(BF)GE D4 | (BF)GE D4 | (DE)FG ABcA | G2G2G2 :|
%%wordsfont Times-Italic 11pt
W:aus Simon Waschers TradArchiv
